icons/sublime-text.svg

<svg xmlns="http://www.w3.org/2000/svg" width="448" height="448" viewBox="0 0 448 448">
  <defs>
    <linearGradient id="sublime-icon-a" x1="50%" x2="50%" y1="0%" y2="100%">
      <stop offset="0%" stop-color="#4D4D4D"/>
      <stop offset="100%" stop-color="#444"/>
    </linearGradient>
    <linearGradient id="sublime-icon-b" x1="55.117%" x2="63.68%" y1="69.542%" y2="26.578%">
      <stop offset="0%" stop-color="#FF9700"/>
      <stop offset="53%" stop-color="#F48E00"/>
      <stop offset="100%" stop-color="#CE6E00"/>
    </linearGradient>
  </defs>
  <g fill="none" fill-rule="evenodd">
    <rect width="448" height="448" fill="url(#sublime-icon-a)" fill-rule="nonzero" rx="28"/>
    <path fill="url(#sublime-icon-b)" d="M352,225.117193 C352,221.218498 349.1196,218.970345 345.584887,220.087307 L102.415113,297.221712 C98.873288,298.345788 96,302.422344 96,306.313924 L96,385.148673 C96,389.047368 98.873288,391.302635 102.415113,390.178559 L345.584887,313.051268 C349.1196,311.927192 352,307.850636 352,303.951941 L352,225.117193 L352,225.117193 Z"/>
    <path fill="#FF9800" d="M96,223.042442 C96,226.940903 98.8728889,231.017214 102.414222,232.141222 L345.585778,309.278106 C349.127111,310.402114 352,308.146983 352,304.255636 L352,225.418512 C352,221.527165 349.127111,217.450854 345.585778,216.326845 L102.414222,139.189962 C98.8728889,138.065953 96,140.313971 96,144.212432 L96,223.042442 Z"/>
    <path fill="#FF9800" d="M352,63.3188598 C352,59.4201646 349.1196,57.1648974 345.584887,58.2889738 L102.415113,135.416264 C98.873288,136.540341 96,140.616896 96,144.515591 L96,223.35034 C96,227.249035 98.873288,229.497188 102.415113,228.380226 L345.584887,151.245821 C349.1196,150.121744 352,146.045189 352,142.153608 L352,63.3188598 Z"/>
  </g>
</svg>

<svg xmlns="http://www.w3.org/2000/svg" width="448" height="448"><defs><linearGradient id="a" x1="50%" x2="50%" y1="0%" y2="100%"><stop offset="0%" stop-color="#4D4D4D"/><stop offset="100%" stop-color="#444"/></linearGradient><linearGradient id="b" x1="55.117%" x2="63.68%" y1="69.542%" y2="26.578%"><stop offset="0%" stop-color="#FF9700"/><stop offset="53%" stop-color="#F48E00"/><stop offset="100%" stop-color="#CE6E00"/></linearGradient></defs><g fill="none" fill-rule="evenodd"><rect width="448" height="448" fill="url(#a)" fill-rule="nonzero" rx="28"/><path fill="url(#b)" d="M352 225.117c0-3.899-2.88-6.147-6.415-5.03l-243.17 77.135c-3.542 1.124-6.415 5.2-6.415 9.092v78.835c0 3.898 2.873 6.154 6.415 5.03l243.17-77.128c3.535-1.124 6.415-5.2 6.415-9.1v-78.834z"/><path fill="#FF9800" d="M96 223.042c0 3.899 2.873 7.975 6.414 9.1l243.172 77.136c3.541 1.124 6.414-1.131 6.414-5.022v-78.837c0-3.892-2.873-7.968-6.414-9.092L102.414 139.19c-3.541-1.124-6.414 1.124-6.414 5.022v78.83z"/><path fill="#FF9800" d="M352 63.319c0-3.899-2.88-6.154-6.415-5.03l-243.17 77.127c-3.542 1.124-6.415 5.2-6.415 9.1v78.834c0 3.899 2.873 6.147 6.415 5.03l243.17-77.134c3.535-1.124 6.415-5.2 6.415-9.092V63.319z"/></g></svg>
